!!! OTL: Literature36
!!! Chapter: 5
!!! Section: I
!!! Page: 352
!!! Mode: 
!!! Encoder: DJB
**kern
*staff1
*I"Piano
=1-
*clefF4
*k[f#c#g#]
*A:
*M2/4
8A\L
16A\L
16B\JJ
8c#\L
8A\J
=2
8F#\
4.B\
=3
8G#\L
16G#\L
16G#\JJ
8A\L
8B\J
=4
4E\
4r
=5
8A\L
16A\L
16B\JJ
8c#\L
8A\J
=6
8F#\
4B\
8A\
=7
16A\LL
16G#\
16F#\
16E\JJ
8E\L
16F#\L
16G#\JJ
=8
16A\LL
16c#\JJ
4e\
8B\
=9
!!linebreak:original
16d\LL
16c#\
16B\
16A\JJ
8A\L
16c#\L
16B\JJ
=10
4A\
4r
==
*-
